X:302
T: EINE HAND VOLL ERDE
N: B0778
O: Europa, Mitteleuropa, Deutschland
R: Trost - Lied, Tod, Klage, religioes
M: 2/4
L: 1/8
K: F
 | AABB | c2Az |
BBAA | A2Gz |
AABB | c2Az |
ccEE | G2Fz |
AABB | c2Az |
BBAA | A2Gz |
AABB | cf2d |
ccEE | G2Fz

@@@ Tune index: 2520
